icons/penis.svg

<svg width="48" height="48" viewBox="0 0 48 48" fill="none" xmlns="http://www.w3.org/2000/svg">
<path fill-rule="evenodd" clip-rule="evenodd" d="M9.00006 13.9996C9.00006 10.221 11.3284 6.98855 14.6248 5.65417L15.3753 7.50805C12.8081 8.54722 11.0001 11.0635 11.0001 13.9996V30.3775L10.3333 30.6131C9.45903 30.9222 9.24986 31.1921 9.16148 31.376C9.02687 31.6562 9.00006 32.0587 9.00006 32.9996C9.00006 34.6767 9.68683 36.4541 10.8178 37.8083C11.9481 39.1617 13.4379 39.9996 15.0001 39.9996C16.5622 39.9996 18.052 39.1617 19.1823 37.8083C20.3133 36.4541 21.0001 34.6767 21.0001 32.9996C21.0001 32.0587 20.9733 31.6562 20.8386 31.376C20.7503 31.1921 20.5411 30.9222 19.6668 30.6131L19.0001 30.3775V19.9996C19.0001 17.2382 21.2387 14.9996 24.0001 14.9996H25.0001V25.9996C25.0001 29.2904 28.3008 31.9996 32.0001 31.9996C35.6993 31.9996 39.0001 29.2904 39.0001 25.9996V15.9996H41.0001V25.9996C41.0001 30.7097 36.4603 33.9996 32.0001 33.9996C27.5399 33.9996 23.0001 30.7097 23.0001 25.9996V17.1703C21.8349 17.5822 21.0001 18.6934 21.0001 19.9996V28.9994C21.7557 29.3575 22.3131 29.8268 22.6413 30.5098C23.001 31.2584 23.0005 32.1368 23.0001 32.9188C23.0001 32.9459 23.0001 32.9728 23.0001 32.9996C23.0001 35.1885 22.1198 37.4111 20.7173 39.0904C19.3141 40.7705 17.3039 41.9996 15.0001 41.9996C12.6962 41.9996 10.686 40.7705 9.28279 39.0904C7.8803 37.4111 7.00006 35.1885 7.00006 32.9996C7.00006 32.9728 7.00005 32.9459 7.00003 32.9188C6.9996 32.1368 6.99911 31.2584 7.35877 30.5098C7.68697 29.8268 8.24444 29.3575 9.00006 28.9994V13.9996Z" fill="black"/>
<path fill-rule="evenodd" clip-rule="evenodd" d="M14.0001 15.0001C14.0001 11.6864 16.6864 9.00006 20.0001 9.00006H35.0001V11.0001H20.0001C17.7909 11.0001 16.0001 12.7909 16.0001 15.0001V41.0001H14.0001V15.0001Z" fill="black"/>
</svg>

<svg
  xmlns="http://www.w3.org/2000/svg"
  width="24"
  height="24"
  viewBox="0 0 24 24"
  fill="none"
  stroke="currentColor"
  stroke-width="2"
  stroke-linecap="round"
  stroke-linejoin="round"
>
  <path
    fill-rule="evenodd"
    d="M9 14a9 9 0 0 1 5.625-8.346l.75 1.854A7 7 0 0 0 11 14v16.378l-.667.235c-.874.31-1.083.58-1.172.763-.134.28-.16.683-.16 1.624 0 1.677.686 3.454 1.817 4.808S13.438 40 15 40s3.052-.838 4.182-2.192S21 34.677 21 33c0-.941-.027-1.344-.161-1.624-.089-.184-.298-.454-1.172-.763L19 30.378V20a5 5 0 0 1 5-5h1v11c0 3.29 3.3 6 7 6s7-2.71 7-6V16h2v10c0 4.71-4.54 8-9 8s-9-3.29-9-8v-8.83A3 3 0 0 0 21 20v9c.756.358 1.313.827 1.641 1.51.36.748.36 1.627.36 2.409v.08c0 2.19-.881 4.412-2.284 6.091S17.304 42 15 42s-4.314-1.23-5.717-2.91C7.88 37.411 7 35.188 7 33v-.081c0-.782 0-1.66.359-2.41.328-.682.885-1.151 1.641-1.51z"
    clip-rule="evenodd"
  />
  <path
    fill-rule="evenodd"
    d="M14 15a6 6 0 0 1 6-6h15v2H20a4 4 0 0 0-4 4v26h-2z"
    clip-rule="evenodd"
  />
</svg>
